X:39
T: Dui hua
N: C0051
O: China,Ningxia, Yongning
S: I, 186]
N: +++Auf Band 17, 7-10) ??? +++
N: Diese Sammlung enthaelt mit Stand 1987 wenigstens 32 Aufnahmen
N: mit dem Titel "Dui hua"
N: C0046, C0495, C0136
R: Xiaodiao, Xiuhebao diao, Duihua. Changhua]
M: 2/4
L: 1/16
K: D
E2E2E2E2 | e8 | f2e2d2BB | A8 |
e8 | e2d2B2A2 | B4d4 | d2B2A2F2 | E8

@@@ Tune index: 6040
